X:1
T:James Gibb editions
T:Psalm 61 (Becker) - Schütz
%%score [ ( 1 2 ) ( 3 4 ) ]
L:1/8
Q:1/4=100
M:2/2
K:F
V:1 treble nm="Soprano Alto"
V:2 treble 
V:3 bass nm="Tenor Bass"
V:4 bass 
V:1
"^Cornelius Becker\n(1561-1604)""^Psalm 61, SWV 158""^Heinrich Schütz\n(1585-1672)" d4 G2 c2 | %1
w: ~Gott, mein Ge-|
w: in mei- ner|
 B2 c2 d4 | B2 d2 f2 _e2 x2 | d4 c4 x2 | B4 :|[M:2/2] d4 c2 F2 | B2 A2 G4 | F2 F2 B2 B2 | %8
w: schrei er- hö-|re, und merk auf|mein Ge-|bet,|hie- nie- den|auf der Er-|den mein Herz, Sinn|
w: Angst so schwe-|re, wenn mich Trüb-|sal an-|geht,||||
 c2 c2 d4 | c2 B2 A2 c2 | B2 A2 G8 |] %11
w: und Ge- bär-|den hab ich zu|dir ge- richt.|
w: |||
V:2
 D4 _E2 G2 | G2 A2 F4 | G2 F2 D2 G2 x2 | F4 F4 x2 | F4 :|[M:2/2] F4 F2 C2 | G2 F4 E2 | %7
 F2 D2 D2 _E2 | _E2 C2 F4 | F2 D2 D2 _E2 | D2 D2 D8 |] %11
V:3
 B,4 B,2 _E2 | D2 F2 D4 | G,2 B,2 F,2 C4 | B,4 A,2 B,4 | x4 :| %5
[M:2/2]"^2. Herr, tu bei mir das Beste, auf einen Fels mich stell,\nsei du mein Burg und Feste, daß mich der Feind nicht fäll,\nin dein'm Haus will ich bleiben, dein Lob ewiglich treiben,\ntrauen den Flügeln dein." B,4 A,2 A,2 | %6
 G,2 C2 C4 | C2 B,2 B,2 G,2 | G,2 A,2 B,4 | A,2 G,2 ^F,2 G,2 | G,2 ^F,2 G,8 |] %11
V:4
 G,4 _E,2 C,2 | G,2 F,2 B,4 | _E,2 B,,2 B,,2 C,2 x2 | D,4 F,4 x2 | B,,4 :|[M:2/2] B,4 F,2 F,2 | %6
 _E,2 F,2 C,4 | F,2 B,2 G,2 _E,2 | C,2 F,2 B,,4 | F,2 G,2 D,2 C,2 | G,,2 D,2 G,,8 |] %11

